X: 22
T: Pretty Miss's Fancy
%R: reel
B: T. Davis "24 Country Dances for the Year 1748"
S: http://imslp.org/wiki/24_Country_Dances_for_the_Year_1748_(Davis,_T.) 2013-11-30
Z: 2013 John Chambers <jc:trillian.mit.edu>
N: The 2nd strain has final repeat but no initial repeat; not fixed.
N: The 4th strain has initial repeat but no final repeat; not fixed.
M: 2/4
L: 1/16
K: D
% - - - - - - - - - - - - - - - - - - - - - - - - -
% Voice 1 has 8-bar staffs.
V: 1 staves=2
|:\
(fgaf) d4 | (gabg) e4 | (fgaf) e2d2 | (cdec) A4 |\
(fgaf) d4 | (gabg) e4 | f2a2 (cdec) | d4 D4 :|
|:\
F2A2F2D2 | G2B2G2E2 | F2A2F2D2 | (CDEC) A,4 |\
F2A2F2D2 | G2B2G2E2 | F2d2 (cdec) | d4 D4 :|
[|\
=f2d2^c2A2 | (=f2ed) ^c2A2 | (de=f2) (efg2) | T=f4 e4 |\
=f2d2^c2A2 | (=fed2) c2A2 | (ag=f2) (_bag2) | Te4 d4 :|
|:\
.A2(=F2E2D2) | ._B2(G2T=F2E2) | .A2(=F2TE2D2) | ^C4 A,4 |\
.A2(=F2TE2D2) | ._B2(G2T=F2E2) | A2d2 (^cdec) | d4 D4 |]
% - - - - - - - - - - - - - - - - - - - - - - - - -
% Voice 2 preserves the original staff breaks.
V: 2 clef=bass middle=d
|:\
z2d2"6"f2d2 | z2"6"e2g2"6"e2 | z2"6"f2"6"g2"7;#"e2 | a2A2c2A2 |\
z2d2"6"f2d2 | z2e2g2e2 | d'2d2 "4"a2"#"A2 | d8 :|\
|:\
d4 z4 | "6;4"d4 z4 | "6"f4 d4 | A4 z4 |
d4 z4 | "6;4"d4 z4 | f2d2 a2A2 | d8 :|\
[|\
"b"d4 "#"a4 | "b"d4 "#"a4 | "="d2d'2 "6"c'2a2 | "4"d'2"b"d2 a4 |\
"b"d4 "#"a4 | "b"d4 "#"a4 | "6"=f2d2 "6;5"g2e2 | "4"a2"#"A2 d4 :|
|:\
"b"d4 z4 | "b6;4"d4 z4 | "b"d4 "6"_B4 | "#"A8 |\
d4 z4 | "b6;4"d4 z4 | d2"6"=f2 "4"a2"#"A2 | d8 |]
%%begintext align
%% First Man foot it to the 2d Wo. and turn the 2d Man; the 1st & 2d Wo. turning at the same Time | Then the 1st Wo.
%% foot it to the 2d Man & turn the 2d Wo. the 1st & 2d Man turning at the same Time || First & 2d Man foot it
%% to their Partners and change Sides; then foot it again & change to their own Sides | Cast down two Cu.
%% and cross over to the top | Foot it and cast off one Couple Hands a cross all round.
%%endtext

%%sep 1 1 500
%%sep 1 1 500

